X: 53
T:Polka Piquee
M:2/4
L:1/16
S:Eurojam
R:Polka
Z:Steve Mansfield
K:G
D2EF G2AB | cBAG Ad^cd | D2EF G2AB | cBAG FGEF | D2EF G2AB |
cBAG Ad^cd | D2EF G2AB | cBAF G4 :: d2d2 c2AB | cBAG FDFA |
c2c2 B2AG | FGAG FDFA | d2d2 c2AB | cBAG FDFA | c2c2 B2AG |
FGAF G4 :: A2AB c2cB | AGAc B2G2 | A2AB c2cB | ABAF G4 :|
|: d2de d2cB | AGAc B2G2 | d2de d2cB | AGAF G4 :|
<end>
<start>
